X:1
T:James Gibb editions
T:Jubilate Deo -Lasso
T:#
%%score [ 1 2 3 4 ]
L:1/8
Q:1/4=108
M:4/4
K:G
V:1 treble nm="S"
V:2 treble nm="A"
V:3 treble-8 nm="T"
V:4 bass nm="B"
V:1
"^Orlando di Lasso\n(1532-94)""^Jubilate Deo" d6 d2 | B2 e2 d4 | c2 (e2- ed cB | A2) B2 A4 | %4
w: Ju- bi-|la- te De-|o, o\- * * * *|* mnis ter-|
[M:4/4] (B3 c d2) (c2- | cB/A/ B2) (c3 B/A/ | B2) e2 d4 | z2 d4 d2 | B2 e2 d4 | c2 (e2- ed cB | %10
w: ra, * * o\-|* * * * mnis * *|* ter- ra,|ju- bi-|la- te De-|o o\- * * * *|
 A2) B2 (A3 B | c2) B2 z2 c2 | c2 c2 (d3 c | BA G4) G2 | G4 z2 d2 | d2 d2 (e3 d | cB AG F2) A2 | %17
w: * mnis ter\- *|* ra, ser-|vi- te Do\- *|* * * mi-|no, ser-|vi- te Do\- *|* * * * * mi-|
 B2 G2 G2 G2 | (A3 G F2) F2 | G2 G2 E2 G2- | G2 F2 G2 B2 | d4 d2 G2 | B2 G2 z2 c2 | B2 e2 d2 c2 | %24
w: no, ser- vi- te|Do\- * * mi-|no in lae- ti\-|* ti- a: in-|tra- te, in-|tra- te in|con- spe- ctu e-|
 B2 c4 B2 | A2 d2 ^c2 (d2- | d^c/B/ c2) d4 | z8 | F4 G4 | (A4 B3) B | A2 A2 F2 (G2- | GF E4 D2) | %32
w: jus, in ex-|ul- ta- ti- o\-|* * * * ne,||qui- a|Do\- * mi-|nus, qui- a Do\-||
 E2 E2 F2 G2 | A8 | F2 F2 G2 A2 | B8 | G2 G2 A2 B2 | c8 | A2 A2 B2 c2 | d8 | %40
w: nus, i- pse est|De-|us, i- pse est|De-|us, i- pse est|De-|us, i- pse est|De-|
[Q:1/4=105] B4[Q:1/4=101] B4 |[Q:1/4=98] c2[Q:1/4=96] c2[Q:1/4=93] c4 |[Q:1/4=92] B8 |] %43
w: us, i-|pse est De-|us.|
V:2
 z4 G4- | G2 E2 F2 G2 | A4 G2 E2 | F2 (G2- GF/E/ F2) |[M:4/4] G8 | z2 G2 E2 C2 | G4 z4 | z4 G4- | %8
w: Ju\-|* bi- la- te|De- o, o-|mnis ter\- * * * *|ra,|o- mnis ter-|ra,|ju\-|
 G2 E2 F2 G2 | A4 G2 E2 | F2 (G2- GF/E/ F2) | G2 G2 G2 G2 | (A3 G F3 E | D2 D2 E2 E2 | %14
w: * bi- la- te|De- o o-|mnis ter\- * * * *|ra, ser- vi- te|Do\- * * *|* mi- no, ser-|
 E2 E2 (=F3 E | D2) B,2 C3 D | E4) z2 D2 | D2 D2 (E3 D | ^C2 C2 D2 D2- | D2 D2 G2 E2 | D8 | %21
w: vi- te Do\- *|* mi- no, *|* ser-|vi- te Do\- *|* mi- no in|* lae- ti- ti-|a:|
 z2 B,2 D4 | D2 E2 G2 G2- | G2 G2 =F2 E2 | G4 A2 G2- | G=F/E/ F2) E2 F2 | E4 A,4 | D4 E4 | %28
w: in- tra-|te in con- spe\-|* ctu e- jus,|in ex- ul\-|* * * * ta- ti-|o- ne,|qui- a|
 (D3 C B,2) B,2 | D2 D4 G2 | =F2 E2 D4 | (G,3 A, B,2) B,2 | ^C2 C2 D2 E2 | =F2 F2 E4 | %34
w: Do\- * * mi-|nus, qui- a|Do- mi- nus,|qui\- * * a|Do- mi- nus, i-|pse, est De-|
 D2 A,2 E2 E2 | (G4 F4) | E2 E4 G2- | G2 A2 G4 | C4 G4 | F2 (G2- GF/E/ F2) | G2 D2 G4 | G2 G2 G4 | %42
w: us, i- pse est|De\- *|us, i- pse|* est, De-|us, i-|pse est * * * *|De- us, i-|pse est De-|
 G8 |] %43
w: us.|
V:3
 z8 | z8 | z8 | z4 d4- |[M:4/4][K:treble-8] d2 d2 B2 e2 | d4 c2 (e2- | ed cB A2) B2 | A4 B2 B2 | %8
w: |||Ju\-|* bi- la- te|De- o, o\-|* * * * * mnis|ter- ra, o-|
 e2 c2 B4 | z8 | d4 d2 d2 | (e3 d cB ed | cB A2- A)A A2 | z2 B2 B2 B2 | (c3 B A2) A2 | B2 G4 G2 | %16
w: mnis ter- ra,||ser- vi- te|Do\- * * * * *|* * * * mi- no,|ser- vi- te|Do\- * * mi-|no, ser- vi-|
 G2 (A2- AG F2) | F2 (G2- GF E2) | (e4 A4) | B4 (c3 B | A2) A2 G4 | z2 G2 B4 | G2 c2 B2 e2 | %23
w: te Do\- * * *|mi- no * * *|in *|lae- ti\- *|* ti- a:|in- tra-|te in con- spe-|
 d2 c2 A4 | e4 =f2 d2 | d2 A2 A4- | A4 F2 F2- | F2 G4 (A2- | A2 B2- BA G2- | G2) F2 G2 d2- | %30
w: ctu e- jus,|in ex- ul-|ta- ti- o\-|* ne, qui\-|* a Do\-||* mi- nus, qui\-|
 d2 c2 (BA GF | E3 F G2) F2 | A2 A4 c2 | c2 (d2- d^c/B/ c2) | A2 d2 c4 | d2 (e2- e^d/^c/ d2) | %36
w: * a Do\- * * *|* * * mi-|nus, i- pse|est De\- * * * *|us, i- pse|est De\- * * * *|
 e2 c4 d2 | e2 (=f2- fe/d/ e2) | =f2 (e2- eB e2) | A2 B2 A4 | (GA Bc d2) e2 | e2 e2 e4 | d8 |] %43
w: us, i- pse|est De\- * * * *|us, i\- * * *|pse est De-|us, * * * * i-|pse est De-|us.|
V:4
 z8 | z8 | z8 | z8 |[M:4/4] G,6 E,2 | F,2 G,2 A,4 | G,2 E,2 F,2 (G,2- | G,F,/E,/ F,2) G,4 | z8 | %9
w: ||||Ju- bi-|la- te De-|o, o- mnis ter\-|* * * * ra,||
 z8 | z8 | z2 E,2 E,2 E,2 | (=F,3 E, D,2) D,2 | (G,3 F, E,3 D, | C,4 D,4) | z4 C,4 | %16
w: ||ser- vi- te|Do\- * * mi-|no, * * *||ser-|
 C,2 C,2 (D,3 C, | B,,2) B,,2 (C,3 B,, | A,,4 D,4 | G,4 C,2 C,2 | D,4 z2 G,2 | B,4 G,4 | %22
w: vi- te Do\- *|* mi- no *|* in|lae- ti- ti-|a: in-|tra- te|
 z2 E,4 C,2 | G,2 C,2 D,2 A,,2 | z2 C,2 =F,2 G,2 | D,2 D,2 A,,4- | A,,4 D,4 | B,,4 C,4 | %28
w: in con-|spe- ctu e- jus|in ex- ul-|ta- ti- o\-|* ne,|qui- a|
 D,4 E,3) E, | D,4 G,,4 | A,,4 (B,,4 | C,3) C, B,,4 | A,,4 D,2 C,2 | (=F,2 E,D, A,4) | D,4 z2 A,2 | %35
w: Do\- * mi-|nus, qui-|a Do\-|* mi- nus,|i- pse est|De\- * * *|us, i-|
 G,2 E,2 B,4 | (C3 B, A,2) G,2 | C2 =F,2 C,4 | =F,2 A,2 E,4 | D,4 D,4 | G,,2 G,2 (G,F, E,D, | %41
w: pse est De-|us, * * i-|pse est De-|us, i- pse|est De-|us, i- pse * * *|
 C,2) C,2 C4 | G,8 |] %43
w: * est De-|us.|

